X: 3046
T: MISS BRUCE
Q:"Reel."
R: Reel.
%R:reel
B: James Kerr "Merry Melodies" v.3 p.7 #46
Z: 2016 John Chambers <jc:trillian.mit.edu>
M: C
L: 1/8
K: G
b |\
g2(dB) dgda | gd e/d/c/B/ cAAf |\
g2(dB) dgfa | b/a/g/f/ gd BGG ::\
d |\
BGdB gdec | BGdB cAAd |\
BGdB d2(ga) | b/a/g/f/ gd BGG :|

%%sep 1 1 500
%%sep 1 1 500

